X:18033
T:Road to Dundee
R:Waltz
C:Trad.
O:Scotland, Canada
Z:Paul Hardy's Session Tunebook 2015 (see www.paulhardy.net). Creative Commons cc by-nc-sa licenced.
M:3/4
L:1/4
Q:1/4=120
K:G
d|"G"d3/2c/2B|BAG|"C"GFE|"G"DGB|"C"c3/2d/2e|"G"dBG|"A7"(3G/2A/2G/2FG|"D7"A2d|
"G"d3/2c/2B|BAG|"C"GFE|"G"DGB|"C"c3/2d/2e|"G"dBG|"D7"cAF|"G"G2D|
"D7"A2D|"G"B2D|"Am"cAF|"D7"DEF|"G"G3/2B/2d|dBG|"A7"(3G/2A/2G/2FG|"D7"A2D|
"D7"A2c|A2D|"G"B2d|"G7"d2G|"C"c3/2d/2e|"G"dBG|"D7"cAF|"G"G2|]

